icons/svg/poi_colored/harbour.svg

<?xml version="1.0" encoding="UTF-8" standalone="no"?>
<!-- Created with Inkscape (http://www.inkscape.org/) -->

<svg
   xmlns:dc="http://purl.org/dc/elements/1.1/"
   xmlns:cc="http://creativecommons.org/ns#"
   xmlns:rdf="http://www.w3.org/1999/02/22-rdf-syntax-ns#"
   xmlns:svg="http://www.w3.org/2000/svg"
   xmlns="http://www.w3.org/2000/svg"
   xmlns:sodipodi="http://sodipodi.sourceforge.net/DTD/sodipodi-0.dtd"
   xmlns:inkscape="http://www.inkscape.org/namespaces/inkscape"
   version="1.0"
   width="580"
   height="580"
   id="svg2"
   sodipodi:version="0.32"
   inkscape:version="0.48.4 r9939"
   sodipodi:docname="harbour.svg"
   inkscape:output_extension="org.inkscape.output.svg.inkscape">
  <metadata
     id="metadata1976">
    <rdf:RDF>
      <cc:Work
         rdf:about="">
        <dc:format>image/svg+xml</dc:format>
        <dc:type
           rdf:resource="http://purl.org/dc/dcmitype/StillImage" />
        <cc:license
           rdf:resource="http://web.resource.org/cc/PublicDomain" />
        <dc:language>en</dc:language>
        <dc:title />
      </cc:Work>
    </rdf:RDF>
  </metadata>
  <sodipodi:namedview
     inkscape:window-height="1004"
     inkscape:window-width="1920"
     inkscape:pageshadow="2"
     inkscape:pageopacity="0.0"
     guidetolerance="10.0"
     gridtolerance="10.0"
     objecttolerance="10.0"
     borderopacity="1.0"
     bordercolor="#666666"
     pagecolor="#ffffff"
     id="base"
     inkscape:zoom="0.65172414"
     inkscape:cx="171.37576"
     inkscape:cy="400.5481"
     inkscape:window-x="1680"
     inkscape:window-y="0"
     inkscape:current-layer="svg2"
     showgrid="false"
     inkscape:window-maximized="1" />
  <defs
     id="defs4">
    <inkscape:perspective
       sodipodi:type="inkscape:persp3d"
       inkscape:vp_x="0 : 290 : 1"
       inkscape:vp_y="0 : 1000 : 0"
       inkscape:vp_z="580 : 290 : 1"
       inkscape:persp3d-origin="290 : 193.33333 : 1"
       id="perspective3653" />
    <marker
       viewBox="0 0 10 10"
       refY="5"
       refX="10"
       orient="auto"
       markerWidth="4"
       markerUnits="strokeWidth"
       markerHeight="3"
       id="ArrowStart">
      <path
         id="path2111"
         d="M 10 0 L 0 5 L 10 10 z" />
    </marker>
    <marker
       viewBox="0 0 10 10"
       refY="5"
       refX="0"
       orient="auto"
       markerWidth="4"
       markerUnits="strokeWidth"
       markerHeight="3"
       id="ArrowEnd">
      <path
         id="path2108"
         d="M 0 0 L 10 5 L 0 10 z" />
    </marker>
    <inkscape:perspective
       id="perspective2512"
       inkscape:persp3d-origin="177.51199 : 145.02 : 1"
       inkscape:vp_z="355.02399 : 217.53 : 1"
       inkscape:vp_y="0 : 1000 : 0"
       inkscape:vp_x="0 : 217.53 : 1"
       sodipodi:type="inkscape:persp3d" />
  </defs>
  <g
     id="g1327">
    <path
       d="M 66.275,1.768 C 24.94,1.768 1.704,23.139 1.704,66.804 L 1.704,516.927 C 1.704,557.771 22.6,579.156 63.896,579.156 L 515.92,579.156 C 557.227,579.156 578.149,558.842 578.149,516.927 L 578.149,66.804 C 578.149,24.203 557.227,1.768 514.628,1.768 C 514.624,1.768 66.133,1.625 66.275,1.768 z "
       style="fill:#111;stroke:#eee;stroke-width:3.40799999"
       id="path1329" />
  </g>
  <g
     id="g2117"
     transform="matrix(1.1975036,0,0,1.1975036,80.128205,34.575832)"
     style="fill:#000000">
    <g
       id="g2119"
       style="fill:#000000">
      <g
         id="g2121"
         style="fill:#000000">
        <path
           id="path2125"
           style="fill:#000000;stroke:none"
           d="" />
      </g>
      <g
         id="g2127"
         style="fill:#000000">
        <path
           id="path2131"
           style="fill:#000000;stroke:none"
           d="" />
      </g>
    </g>
  </g>
  <circle
     style="fill:none;stroke:#ffffff;stroke-width:2;stroke-linecap:round;stroke-linejoin:round;stroke-miterlimit:10;stroke-opacity:1"
     sodipodi:ry="3"
     sodipodi:rx="3"
     sodipodi:cy="4"
     sodipodi:cx="13"
     stroke-miterlimit="10"
     cx="13"
     cy="4"
     r="3"
     id="circle3"
     transform="matrix(15.458689,0,0,15.458689,89.03704,89.037034)" />
  <path
     style="fill:#ffffff;fill-opacity:1"
     inkscape:connector-curvature="0"
     d="m 388.54915,316.40345 c 0,0 31.42751,-45.85047 73.4597,-57.42903 26.86719,31.52027 28.95411,69.16218 28.95411,87.71261 0,0 -24.85757,-9.47618 -44.44373,-35.43132 -15.2268,8.57958 -57.97008,5.14774 -57.97008,5.14774 z"
     id="path5" />
  <path
     style="fill:#ffffff;fill-opacity:1"
     inkscape:connector-curvature="0"
     d="m 191.45085,316.40345 c 0,0 -29.92802,-45.09299 -71.96018,-56.67155 -26.248869,22.6779 -30.45363,86.95513 -30.45363,86.95513 0,0 25.76963,-12.78434 44.44373,-35.43132 15.2268,8.57958 57.97008,5.14774 57.97008,5.14774 z"
     id="path7" />
  <path
     style="fill:#ffffff;fill-opacity:1"
     inkscape:connector-curvature="0"
     d="M 428.55623,289.11886 C 417.1941,339.96249 366.21134,410.6087 320.91738,413.80865 V 197.24787 H 259.08263 V 413.80865 C 213.78866,410.6087 162.8059,339.97795 151.44377,289.11886 l -47.16446,18.38038 c 11.99595,67.94094 70.33704,131.07423 143.07017,147.04305 27.33096,5.99798 42.65053,36.42068 42.65053,36.42068 0,0 15.31957,-30.4227 42.65052,-36.42068 72.73312,-15.96882 131.07422,-79.10211 143.07016,-147.04305 l -47.16446,-18.38038 z"
     id="path9" />
  <rect
     style="fill:#ffffff;fill-opacity:1"
     x="212.70654"
     y="243.62396"
     width="154.5869"
     height="30.917377"
     id="rect11" />
  <path
     sodipodi:type="arc"
     style="color:#000000;fill:none;stroke:#ffffff;stroke-width:25.59945107;stroke-linecap:butt;stroke-linejoin:miter;stroke-miterlimit:4;stroke-opacity:1;stroke-dasharray:none;stroke-dashoffset:0;marker:none;visibility:visible;display:inline;overflow:visible;enable-background:accumulate"
     id="path3000"
     sodipodi:cx="110.47619"
     sodipodi:cy="67.513229"
     sodipodi:rx="260.84656"
     sodipodi:ry="260.84656"
     d="m 371.32275,67.513229 a 260.84656,260.84656 0 1 1 -521.69312,0 260.84656,260.84656 0 1 1 521.69312,0 z"
     transform="matrix(0.97658346,0,0,0.97658346,182.11078,224.0677)" />
</svg>

<svg width="580" height="580" viewBox="0 0 580 580" fill="none" xmlns="http://www.w3.org/2000/svg">
<g clip-path="url(#clip0)">
<path d="M66.2751 1.7679C24.9401 1.7679 1.7041 23.1389 1.7041 66.8039V516.927C1.7041 557.771 22.6001 579.156 63.8961 579.156H515.92C557.227 579.156 578.149 558.842 578.149 516.927V66.8039C578.149 24.2029 557.227 1.7679 514.628 1.7679C514.624 1.7679 66.1331 1.6249 66.2751 1.7679Z" fill="#111111" stroke="#EEEEEE" stroke-width="3.408"/>
<path d="M290 197.248C315.613 197.248 336.376 176.484 336.376 150.872C336.376 125.259 315.613 104.496 290 104.496C264.387 104.496 243.624 125.259 243.624 150.872C243.624 176.484 264.387 197.248 290 197.248Z" stroke="white" stroke-width="30.9174" stroke-miterlimit="10" stroke-linecap="round" stroke-linejoin="round"/>
<path d="M388.549 316.403C388.549 316.403 419.977 270.553 462.009 258.974C488.876 290.495 490.963 328.137 490.963 346.687C490.963 346.687 466.106 337.211 446.519 311.256C431.293 319.835 388.549 316.403 388.549 316.403Z" fill="white"/>
<path d="M191.451 316.403C191.451 316.403 161.523 271.31 119.491 259.732C93.2419 282.41 89.0371 346.687 89.0371 346.687C89.0371 346.687 114.807 333.903 133.481 311.256C148.708 319.835 191.451 316.403 191.451 316.403Z" fill="white"/>
<path d="M428.556 289.119C417.194 339.962 366.211 410.609 320.917 413.809V197.248H259.083V413.809C213.789 410.609 162.806 339.978 151.444 289.119L104.279 307.499C116.275 375.44 174.616 438.573 247.349 454.542C274.68 460.54 290 490.963 290 490.963C290 490.963 305.32 460.54 332.651 454.542C405.384 438.573 463.725 375.44 475.721 307.499L428.556 289.119V289.119Z" fill="white"/>
<path d="M367.293 243.624H212.707V274.541H367.293V243.624Z" fill="white"/>
<path d="M544.739 290C544.739 357.561 517.9 422.354 470.127 470.127C422.355 517.9 357.561 544.738 290 544.738C222.439 544.738 157.646 517.9 109.873 470.127C62.1002 422.354 35.2617 357.561 35.2617 290C35.2617 222.439 62.1002 157.645 109.873 109.873C157.646 62.0999 222.439 35.2615 290 35.2615C357.561 35.2615 422.355 62.0999 470.127 109.873C517.9 157.645 544.739 222.439 544.739 290V290Z" stroke="white" stroke-width="25"/>
</g>
<defs>
<clipPath id="clip0">
<path d="M0 0H580V580H0V0Z" fill="white"/>
</clipPath>
</defs>
</svg>
